svgs/regular/circle-h.svg

<svg xmlns="http://www.w3.org/2000/svg" viewBox="0 0 512 512"><!--! Font Awesome Pro 6.4.2 by @fontawesome - https://fontawesome.com License - https://fontawesome.com/license (Commercial License) Copyright 2023 Fonticons, Inc. --><path d="M256 48a208 208 0 1 1 0 416 208 208 0 1 1 0-416zm0 464A256 256 0 1 0 256 0a256 256 0 1 0 0 512zM368 152c0-13.3-10.7-24-24-24s-24 10.7-24 24v80H192V152c0-13.3-10.7-24-24-24s-24 10.7-24 24l0 208c0 13.3 10.7 24 24 24s24-10.7 24-24l0-80H320v80c0 13.3 10.7 24 24 24s24-10.7 24-24V256 152z"/></svg>

<svg xmlns="http://www.w3.org/2000/svg" viewBox="0 0 512 512"><!--! Font Awesome Pro 6.0.0-alpha3 by @fontawesome - https://fontawesome.com License - https://fontawesome.com/license (Commercial License) --><path d="M256 0C114.6 0 0 114.6 0 256s114.6 256 256 256s256-114.6 256-256S397.4 0 256 0zM256 464c-114.7 0-208-93.31-208-208S141.3 48 256 48s208 93.31 208 208S370.7 464 256 464zM344 128C330.8 128 320 138.8 320 152v80H192v-80C192 138.8 181.3 128 168 128S144 138.8 144 152v208C144 373.3 154.8 384 168 384S192 373.3 192 360v-80h128v80c0 13.25 10.75 24 24 24s24-10.75 24-24v-208C368 138.8 357.3 128 344 128z"/></svg>
